Icons/ch_iAgentur_i20Min.svg

<svg viewBox="0 0 48 48"><defs><linearGradient id="linearGradient3764" x1="1" x2="47" gradientUnits="userSpaceOnUse" gradientTransform="translate(-48.000001,0.00221467)"><stop stop-color="#005698" stop-opacity="1"/><stop offset="1" stop-color="#0061ac" stop-opacity="1"/></linearGradient><clipPath id="clipPath-697353798"><g transform="translate(0,-1004.3622)"><rect rx="4" y="1005.36" x="1" height="46" width="46" fill="#1890d0"/></g></clipPath><clipPath id="clipPath-726054049"><g transform="translate(0,-1004.3622)"><rect rx="4" y="1005.36" x="1" height="46" width="46" fill="#1890d0"/></g></clipPath></defs><g><path d="m 1 43 l 0 0.25 c 0 2.216 1.784 4 4 4 l 38 0 c 2.216 0 4 -1.784 4 -4 l 0 -0.25 c 0 2.216 -1.784 4 -4 4 l -38 0 c -2.216 0 -4 -1.784 -4 -4 z m 0 0.5 l 0 0.5 c 0 2.216 1.784 4 4 4 l 38 0 c 2.216 0 4 -1.784 4 -4 l 0 -0.5 c 0 2.216 -1.784 4 -4 4 l -38 0 c -2.216 0 -4 -1.784 -4 -4 z" opacity="0.02"/><path d="m 1 43.25 l 0 0.25 c 0 2.216 1.784 4 4 4 l 38 0 c 2.216 0 4 -1.784 4 -4 l 0 -0.25 c 0 2.216 -1.784 4 -4 4 l -38 0 c -2.216 0 -4 -1.784 -4 -4 z" opacity="0.05"/><path d="m 1 43 l 0 0.25 c 0 2.216 1.784 4 4 4 l 38 0 c 2.216 0 4 -1.784 4 -4 l 0 -0.25 c 0 2.216 -1.784 4 -4 4 l -38 0 c -2.216 0 -4 -1.784 -4 -4 z" opacity="0.1"/></g><g><rect width="46" height="46" x="-47" y="1" rx="4" transform="matrix(0,-1,1,0,0,0)" fill="url(#linearGradient3764)" fill-opacity="1"/></g><g><g clip-path="url(#clipPath-697353798)"><g opacity="0.1"><!-- color: #0061ac --><g><path d="m 20 23 l 1.5 1 l -1.5 1 l -8 0 l -1.5 -1 l 1.5 -1 m 9.5 13 l -10.879 0 c -0.867 -0.223 -1.621 -1.5 -1.621 -2 l 3 -1 l 8 0 m -11 0 l 0 -8 l 0.5 -0.5 l 2.5 2 l 0 5.5 m 7 -17 l -7 0 l -3 -1.5 c 0.219 -0.891 1 -1.5 2 -1.5 l 9.5 0 m -0.5 9.5 l 0 -6.5 l 1 -3 c 1 0 2 1 2 2 l 0 9 l -1 0.5" fill="#000"/><path d="m 38.35 24.5 l 0.648 0.5 l 0 9 c 0 1 -1.02 2 -1.648 2 l -1.352 -3 l 0 -7 m 0 10 l -9 0 c -0.867 -0.223 -1.781 -0.609 -2 -1.5 l 3 -1.5 l 7 0 m -10 0.5 l 0 -8.5 l 1 -0.5 l 2 1.5 l 0 6 m 7 -17 l -7 0 l -3 -2 c 0 0 1 -1 2 -1 l 9.5 0 m -8.5 4 l 0 6 l -2 1.5 l -1 -0.5 l 0 -9 m 11 8 l 0 -7 l 1.371 -3 c 0.629 0 1.629 1 1.629 2 l 0 9 l -0.648 0.5" fill="#000"/></g></g></g></g><g><g clip-path="url(#clipPath-726054049)"><g transform="translate(0,-1)"><!-- color: #0061ac --><g><path d="m 20 23 l 1.5 1 l -1.5 1 l -8 0 l -1.5 -1 l 1.5 -1 m 9.5 13 l -10.879 0 c -0.867 -0.223 -1.621 -1.5 -1.621 -2 l 3 -1 l 8 0 m -11 0 l 0 -8 l 0.5 -0.5 l 2.5 2 l 0 5.5 m 7 -17 l -7 0 l -3 -1.5 c 0.219 -0.891 1 -1.5 2 -1.5 l 9.5 0 m -0.5 9.5 l 0 -6.5 l 1 -3 c 1 0 2 1 2 2 l 0 9 l -1 0.5" fill="#f9f9f9"/><path d="m 38.35 24.5 l 0.648 0.5 l 0 9 c 0 1 -1.02 2 -1.648 2 l -1.352 -3 l 0 -7 m 0 10 l -9 0 c -0.867 -0.223 -1.781 -0.609 -2 -1.5 l 3 -1.5 l 7 0 m -10 0.5 l 0 -8.5 l 1 -0.5 l 2 1.5 l 0 6 m 7 -17 l -7 0 l -3 -2 c 0 0 1 -1 2 -1 l 9.5 0 m -8.5 4 l 0 6 l -2 1.5 l -1 -0.5 l 0 -9 m 11 8 l 0 -7 l 1.371 -3 c 0.629 0 1.629 1 1.629 2 l 0 9 l -0.648 0.5" fill="#f9f9f9"/></g></g></g></g><g><g transform="translate(0,-1004.3622)"><path d="m 1 1043.36 0 4 c 0 2.216 1.784 4 4 4 l 38 0 c 2.216 0 4 -1.784 4 -4 l 0 -4 c 0 2.216 -1.784 4 -4 4 l -38 0 c -2.216 0 -4 -1.784 -4 -4 z" opacity="0.1"/></g></g></svg>

<svg viewBox="0 0 48 48" xmlns:xlink="http://www.w3.org/1999/xlink">
 <defs>
  <linearGradient id="0">
   <stop stop-opacity="0"/>
   <stop offset="1"/>
  </linearGradient>
  <linearGradient xlink:href="#0" id="1" gradientUnits="userSpaceOnUse" gradientTransform="translate(4e-7,-48)" y1="47" x2="0" y2="1"/>
  <clipPath id="2">
   <g transform="translate(0,-1004.3622)">
    <rect rx="4" y="1005.36" x="1" height="46" width="46" fill="#1890d0"/>
   </g>
  </clipPath>
  <clipPath id="3">
   <g transform="translate(0,-1004.3622)">
    <rect rx="4" y="1005.36" x="1" height="46" width="46" fill="#1890d0"/>
   </g>
  </clipPath>
 </defs>
 <g>
  <g transform="translate(0,-1004.3622)">
   <path d="m 5,1006.3622 c -2.216,0 -4,1.784 -4,4 l 0,37.25 c 0,2.216 1.784,4 4,4 l 38,0 c 2.216,0 4,-1.784 4,-4 l 0,-37.25 c 0,-2.216 -1.784,-4 -4,-4 l -38,0 z m -4,41.5 0,0.5 c 0,2.216 1.784,4 4,4 l 38,0 c 2.216,0 4,-1.784 4,-4 l 0,-0.5 c 0,2.216 -1.784,4 -4,4 l -38,0 c -2.216,0 -4,-1.784 -4,-4 z" opacity="0.02"/>
   <path d="m 1,1047.6122 0,0.25 c 0,2.216 1.784,4 4,4 l 38,0 c 2.216,0 4,-1.784 4,-4 l 0,-0.25 c 0,2.216 -1.784,4 -4,4 l -38,0 c -2.216,0 -4,-1.784 -4,-4 z" opacity="0.05"/>
   <rect width="46" height="46" x="1" y="1005.61" rx="4" opacity="0.1"/>
  </g>
 </g>
 <g>
  <g transform="translate(0,-1004.3622)">
   <rect rx="4" y="1005.36" x="1" height="46" width="46" fill="#0061ac"/>
  </g>
 </g>
 <g>
  <rect transform="scale(1,-1)" width="46" height="46" x="1" y="-46.998" rx="4" opacity="0.1" fill="url(#1)"/>
 </g>
 <g>
  <g clip-path="url(#2)">
   <g opacity="0.1">
    <g>
     <path d="M 20 23 L 21.5 24 L 20 25 L 12 25 L 10.5 24 L 12 23 M 21.5 36 L 10.621094 36 C 9.753906 35.777344 9 34.5 9 34 L 12 33 L 20 33 M 9 33 L 9 25 L 9.5 24.5 L 12 26.5 L 12 32 M 19 15 L 12 15 L 9 13.5 C 9.21875 12.609375 10 12 11 12 L 20.5 12 M 20 21.5 L 20 15 L 21 12 C 22 12 23 13 23 14 L 23 23 L 22 23.5 "/>
     <path d="M 38.351562 24.5 L 39 25 L 39 34 C 39 35 37.980469 36 37.351562 36 L 36 33 L 36 26 M 36 36 L 27 36 C 26.132812 35.777344 25.21875 35.390625 25 34.5 L 28 33 L 35 33 M 25 33.5 L 25 25 L 26 24.5 L 28 26 L 28 32 M 35 15 L 28 15 L 25 13 C 25 13 26 12 27 12 L 36.5 12 M 28 16 L 28 22 L 26 23.5 L 25 23 L 25 14 M 36 22 L 36 15 L 37.371094 12 C 38 12 39 13 39 14 L 39 23 L 38.351562 23.5 "/>
    </g>
   </g>
  </g>
 </g>
 <g>
  <g clip-path="url(#3)">
   <g transform="translate(0,-1)">
    <g>
     <path d="M 20 23 L 21.5 24 L 20 25 L 12 25 L 10.5 24 L 12 23 M 21.5 36 L 10.621094 36 C 9.753906 35.777344 9 34.5 9 34 L 12 33 L 20 33 M 9 33 L 9 25 L 9.5 24.5 L 12 26.5 L 12 32 M 19 15 L 12 15 L 9 13.5 C 9.21875 12.609375 10 12 11 12 L 20.5 12 M 20 21.5 L 20 15 L 21 12 C 22 12 23 13 23 14 L 23 23 L 22 23.5 " fill="#f9f9f9"/>
     <path d="M 38.351562 24.5 L 39 25 L 39 34 C 39 35 37.980469 36 37.351562 36 L 36 33 L 36 26 M 36 36 L 27 36 C 26.132812 35.777344 25.21875 35.390625 25 34.5 L 28 33 L 35 33 M 25 33.5 L 25 25 L 26 24.5 L 28 26 L 28 32 M 35 15 L 28 15 L 25 13 C 25 13 26 12 27 12 L 36.5 12 M 28 16 L 28 22 L 26 23.5 L 25 23 L 25 14 M 36 22 L 36 15 L 37.371094 12 C 38 12 39 13 39 14 L 39 23 L 38.351562 23.5 " fill="#f9f9f9"/>
    </g>
   </g>
  </g>
 </g>
 <g>
  <g transform="translate(0,-1004.3622)">
   <path d="m 1,1043.3622 0,4 c 0,2.216 1.784,4 4,4 l 38,0 c 2.216,0 4,-1.784 4,-4 l 0,-4 c 0,2.216 -1.784,4 -4,4 l -38,0 c -2.216,0 -4,-1.784 -4,-4 z" opacity="0.1"/>
  </g>
 </g>
</svg>
